X:4
T:Cleveland Park - Dm
R:jig
C:Ivan Drever
M:6/8
L:1/8
K:Dm
"Dm" A,DE FED | "Bb" B,DE FED | "G" =B,DE     FED | "C" (E/F/G)E FED |
"Dm" A,DE FED | "Bb" B,DE FED | "C" (E/F/G)E C2 G | "C" GFE "Dm" D z2 :|
"Dm" DFA  dAF | "Gm" GAB "Dm" AFD | "Bb" B,DF "Dm" A,DF | "Dm" FED "A" ^CDE |
"Dm" DFA  dAF | "Gm" GAB "Dm" AFD | "Bb" B,DF "Dm" A,DF | "A" ED^C "Dm" D3 |
"Dm" DFA  dAF | "Gm" GAB "Dm" AFD | "Bb" B,DF "Dm" A,DF | "Dm" FED "A" ^CDE |
"Dm" A,DE FED | "Bb" B,DE FED | "C" (E/F/G)E C2 G | "C" GFE "Dm" D z2 |]
